www/static/images/case-studies/hulu/next.js.svg

<svg fill="none" height="432" viewBox="0 0 432 432" width="432" xmlns="http://www.w3.org/2000/svg" xmlns:xlink="http://www.w3.org/1999/xlink"><filter id="a" color-interpolation-filters="sRGB" filterUnits="userSpaceOnUse" height="122" width="122" x="155" y="156"><feFlood flood-opacity="0" result="BackgroundImageFix"/><feColorMatrix in="SourceAlpha" type="matrix" values="0 0 0 0 0 0 0 0 0 0 0 0 0 0 0 0 0 0 127 0"/><feOffset dy="1"/><feGaussianBlur stdDeviation="2.5"/><feColorMatrix type="matrix" values="0 0 0 0 0 0 0 0 0 0 0 0 0 0 0 0 0 0 0.24 0"/><feBlend in2="BackgroundImageFix" mode="normal" result="effect1_dropShadow"/><feBlend in="SourceGraphic" in2="effect1_dropShadow" mode="normal" result="shape"/></filter><g stroke="#fff" stroke-dasharray="3 3"><circle cx="216" cy="216" r="95.5"/><circle cx="216" cy="216" opacity=".6" r="135.5"/><circle cx="216" cy="216" opacity=".5" r="175.5"/><circle cx="216" cy="216" opacity=".3" r="215.5"/></g><g filter="url(#a)"><circle cx="216" cy="216" fill="#fff" r="56"/></g><path d="m200.611 208.432h12.478v.994h-11.334v7.481h10.658v.994h-10.658v8.213h11.464v.994h-12.608zm13.596 0h1.326l5.875 8.214 6.005-8.214 8.168-10.432-13.419 19.509 6.915 9.599h-1.378l-6.291-8.736-6.317 8.736h-1.352l6.967-9.599zm15.364.994v-.994h14.219v.994h-6.55v17.682h-1.145v-17.682zm-44.571-.994h1.43l19.716 29.568-8.148-10.892-11.802-17.263-.052 17.263h-1.144zm58.676 17.382c-.235 0-.41-.181-.41-.415 0-.235.175-.417.409-.417.237 0 .409.182.409.417 0 .234-.172.415-.409.415zm1.123-1.094h.612c.009.332.251.555.607.555.398 0 .623-.239.623-.689v-2.847h.623v2.85c0 .81-.467 1.276-1.241 1.276-.725 0-1.223-.453-1.223-1.145zm3.28-.036h.618c.053.382.425.625.963.625.5 0 .867-.26.867-.617 0-.307-.233-.491-.765-.617l-.517-.125c-.726-.17-1.057-.523-1.057-1.114 0-.718.584-1.196 1.46-1.196.815 0 1.411.478 1.447 1.156h-.607c-.058-.371-.38-.603-.848-.603-.493 0-.821.238-.821.601 0 .287.212.452.735.575l.442.109c.823.192 1.163.527 1.163 1.133 0 .77-.596 1.254-1.547 1.254-.89 0-1.488-.461-1.533-1.181z" fill="#000"/></svg>

<svg width="432" height="432" viewBox="0 0 432 432" fill="none" xmlns="http://www.w3.org/2000/svg">
<circle cx="216" cy="216" r="95.5" stroke="white" stroke-dasharray="3 3"/>
<circle opacity="0.6" cx="216" cy="216" r="135.5" stroke="white" stroke-dasharray="3 3"/>
<circle opacity="0.5" cx="216" cy="216" r="175.5" stroke="white" stroke-dasharray="3 3"/>
<circle opacity="0.3" cx="216" cy="216" r="215.5" stroke="white" stroke-dasharray="3 3"/>
<g filter="url(#filter0_d)">
<circle cx="216" cy="216" r="56" fill="white"/>
</g>
<path d="M200.611 208.432H213.089V209.426H201.755V216.907H212.413V217.901H201.755V226.114H213.219V227.108H200.611V208.432ZM214.207 208.432H215.533L221.408 216.646L227.413 208.432L235.581 198L222.162 217.509L229.077 227.108H227.699L221.408 218.372L215.091 227.108H213.739L220.706 217.509L214.207 208.432H214.207ZM229.571 209.426V208.432H243.79V209.426H237.24V227.108H236.095V209.426H229.571H229.571ZM185 208.432H186.43L206.146 238L197.998 227.108L186.196 209.845L186.144 227.108H185V208.432ZM243.676 225.814C243.441 225.814 243.266 225.633 243.266 225.399C243.266 225.164 243.441 224.982 243.675 224.982C243.912 224.982 244.084 225.164 244.084 225.399C244.084 225.633 243.912 225.814 243.675 225.814H243.676ZM244.799 224.72H245.411C245.42 225.052 245.662 225.275 246.018 225.275C246.416 225.275 246.641 225.036 246.641 224.586V221.739H247.264V224.589C247.264 225.399 246.797 225.865 246.023 225.865C245.298 225.865 244.8 225.412 244.8 224.72H244.799ZM248.079 224.684H248.697C248.75 225.066 249.122 225.309 249.66 225.309C250.16 225.309 250.527 225.049 250.527 224.692C250.527 224.385 250.294 224.201 249.762 224.075L249.245 223.95C248.519 223.78 248.188 223.427 248.188 222.836C248.188 222.118 248.772 221.64 249.648 221.64C250.463 221.64 251.059 222.118 251.095 222.796H250.488C250.43 222.425 250.108 222.193 249.64 222.193C249.147 222.193 248.819 222.431 248.819 222.794C248.819 223.081 249.031 223.246 249.554 223.369L249.996 223.478C250.819 223.67 251.159 224.005 251.159 224.611C251.159 225.381 250.563 225.865 249.612 225.865C248.722 225.865 248.124 225.404 248.079 224.684V224.684Z" fill="black"/>
<defs>
<filter id="filter0_d" x="155" y="156" width="122" height="122" filterUnits="userSpaceOnUse" color-interpolation-filters="sRGB">
<feFlood flood-opacity="0" result="BackgroundImageFix"/>
<feColorMatrix in="SourceAlpha" type="matrix" values="0 0 0 0 0 0 0 0 0 0 0 0 0 0 0 0 0 0 127 0"/>
<feOffset dy="1"/>
<feGaussianBlur stdDeviation="2.5"/>
<feColorMatrix type="matrix" values="0 0 0 0 0 0 0 0 0 0 0 0 0 0 0 0 0 0 0.24 0"/>
<feBlend mode="normal" in2="BackgroundImageFix" result="effect1_dropShadow"/>
<feBlend mode="normal" in="SourceGraphic" in2="effect1_dropShadow" result="shape"/>
</filter>
</defs>
</svg>
